X:1
T:The Lawyer Outwitted
M:2/4
L:1/8
K:E
 B,| E3.99999962500005/5.99999925000009 E3.99999962500005/5.99999925000009 E3.99999962500005/5.99999925000009 AE|\
 GA BG| EE AG| F E2| B,| EE AE| GA BG| EE AG| F E2| G| GA Be| cB BA|\
 GA Be| c B2| B,| EE AF| GA B G/2G/2| EE AG| F E2||
